Papirus/22x22/panel/plasmavault_error.svg

<svg width="22" height="22" version="1.1" xmlns="http://www.w3.org/2000/svg">
 <defs>
  <style id="current-color-scheme" type="text/css">.ColorScheme-Text { color:#dfdfdf; } .ColorScheme-Highlight { color:#4285f4; } .ColorScheme-NeutralText { color:#ff9800; } .ColorScheme-PositiveText { color:#4caf50; } .ColorScheme-NegativeText { color:#f44336; }</style>
 </defs>
 <path class="ColorScheme-NegativeText" d="m4.142578 4s-1.142578 0.04269-1.142578 1.1855469v12.671875s-2.79e-4 1.142578 1.142578 1.142578h13.714844s1.142578 2.79e-4 1.142578-1.142578v-10.685547c0-1.1428573-1.142578-1.171875-1.142578-1.171875h-5.714844l-2.285156-2zm5.857422 4h2v6h-2zm2 9h-2v-2h2z" style="fill:currentColor"/>
</svg>

<svg width="22" height="22" version="1.1" xmlns="http://www.w3.org/2000/svg">
 <defs>
  <style id="current-color-scheme" type="text/css">.ColorScheme-Text { color:#dfdfdf; } .ColorScheme-Highlight { color:#4285f4; } .ColorScheme-NeutralText { color:#ff9800; } .ColorScheme-PositiveText { color:#4caf50; } .ColorScheme-NegativeText { color:#f44336; }</style>
 </defs>
 <path class="ColorScheme-NegativeText" d="M 4.142578,4 C 4.142578,4 3,4.04269 3,5.1855469 V 17.857422 C 3,17.857422 2.999721,19 4.142578,19 H 17.857422 C 17.857422,19 19,19.000279 19,17.857422 V 7.171875 C 19,6.0290177 17.857422,6 17.857422,6 H 12.142578 L 9.857422,4 Z M 11,7 c 1.6,0 3,0.9993514 3,2.916016 V 11 h 0.333984 C 14.657204,11 15,11.366005 15,11.761719 v 4.523437 C 15,16.68087 14.703318,17 14.333984,17 H 7.666015 C 7.296682,17 7,16.68087 7,16.285156 V 11.761719 C 7,11.366005 7.296682,11 7.666015,11 H 8 V 9.916016 C 8,7.9993514 9.399999,7 11,7 Z m 0,1 C 10.2,8 9,8.5633376 9,9.916016 V 11 h 4 V 9.916016 C 13,8.5498156 11.8,8 11,8 Z" style="fill:currentColor"/>
</svg>
